X: 36
T:Rigadoon. TBe.036
M:C|
L:1/4
Q:90
S:Thomas Bennet MS,1718, VWML
R:rigadoon
O:England
H:1718
Z:C.  Graebe
K:C major
cdef | g (f/e/)dG | g (f/e/) dc | ""B""c d2 |!
 defg | a (g/f/) ""ef | g (f/e/) dc | d""Bc2 ||!
gfe (d/c/) | fga2 | gag (f/e/) | fe""d2 |!
 GcAd | Becf | dge (d/c/) | d""Bc2 ||
